icons-mns/user.svg

<svg height="1em" width="auto" viewBox="0 0 105 105" fill="currentColor" xmlns="http://www.w3.org/2000/svg">
<path d="M27.5692 19.7392C32.9053 19.7392 37.2311 15.5185 37.2311 10.312C37.2311 5.10547 32.9053 0.884766 27.5692 0.884766C22.233 0.884766 17.9072 5.10547 17.9072 10.312C17.9072 15.5185 22.233 19.7392 27.5692 19.7392Z" />
<path d="M53.5328 48.2528C48.8012 39.0972 39.179 23.7344 27.5688 23.7344C15.9585 23.7344 6.29661 39.0972 1.60481 48.2528C0.0398484 51.2386 -0.391486 54.6685 0.387217 57.9348C1.16592 61.2012 3.10439 64.0932 5.85924 66.0986C7.32364 67.2653 9.13883 67.9328 11.0282 67.9995C12.8691 67.9887 14.6862 67.5917 16.3562 66.8357C18.7661 65.7611 20.7889 64.0038 22.1613 61.7923C22.2391 61.6291 22.3323 61.4732 22.4396 61.3268C22.9645 60.5236 23.6787 59.8545 24.5225 59.3753C25.3664 58.8962 26.3154 58.6209 27.2905 58.5723H27.8471C28.829 58.6148 29.786 58.8872 30.6373 59.3666C31.4885 59.8461 32.209 60.5184 32.7377 61.3268L33.0956 61.9475C34.2626 63.7748 35.8844 65.2844 37.8101 66.3358C39.7358 67.3872 41.9028 67.9462 44.1094 67.9607C46.1339 67.8792 48.0694 67.1265 49.5964 65.827C52.213 63.7783 54.0309 60.9165 54.7471 57.7185C55.4634 54.5206 55.0348 51.1798 53.5328 48.2528ZM48.8807 58.8051C48.7346 59.0673 48.5614 59.3143 48.3638 59.5422C47.7208 60.1666 46.9419 60.6417 46.085 60.9323C45.2281 61.2229 44.3151 61.3216 43.4138 61.221C42.5124 61.1204 41.6459 60.8231 40.8784 60.3511C40.1109 59.8792 39.4621 59.2447 38.9802 58.4947C38.8309 58.3199 38.7102 58.1236 38.6224 57.9128C37.7296 56.5078 36.5688 55.283 35.2029 54.3049C34.4755 53.7998 33.7038 53.3584 32.8968 52.9858C31.3097 52.2791 29.5913 51.8962 27.8471 51.8608H27.0519C25.3621 51.921 23.7007 52.3032 22.1613 52.9858C21.3443 53.3398 20.5708 53.7823 19.8551 54.3049C18.4092 55.341 17.2034 56.6629 16.3164 58.1844L16.0778 58.6111C15.5146 59.4851 14.7261 60.1996 13.791 60.683C12.856 61.1663 11.8074 61.4017 10.7499 61.3656C9.82942 61.3442 8.92905 61.0987 8.13052 60.6516C7.33199 60.2044 6.6606 59.5697 6.17733 58.8051C5.6821 58.0133 5.39086 57.1162 5.32854 56.1906C5.26622 55.265 5.43467 54.3384 5.81948 53.4902C14.1693 35.5281 22.2408 31.9201 27.5688 31.9201C35.1234 31.9201 42.3599 39.0584 49.0398 53.1022C49.4469 54.0052 49.6439 54.985 49.6164 55.9711C49.5889 56.9572 49.3376 57.9251 48.8807 58.8051Z" />
</svg>

<svg xmlns="http://www.w3.org/2000/svg" width="auto" height="1em" fill="currentColor" viewBox="0 0 105 105">
    <path d="M27.57 19.74c5.335 0 9.661-4.221 9.661-9.428S32.905.885 27.57.885s-9.662 4.22-9.662 9.427 4.326 9.427 9.662 9.427m25.963 28.514C48.8 39.097 39.179 23.734 27.569 23.734S6.297 39.097 1.605 48.253a13.9 13.9 0 0 0-1.218 9.682c.779 3.266 2.717 6.158 5.472 8.164a8.8 8.8 0 0 0 5.17 1.9c1.84-.01 3.657-.407 5.327-1.163a13.1 13.1 0 0 0 5.805-5.044q.117-.245.279-.465a6.06 6.06 0 0 1 2.082-1.952 6.24 6.24 0 0 1 2.769-.803h.556a6.24 6.24 0 0 1 2.79.795 6.06 6.06 0 0 1 2.1 1.96l.359.62a12.95 12.95 0 0 0 4.714 4.389 13.3 13.3 0 0 0 6.3 1.625 9.03 9.03 0 0 0 5.486-2.134 14.27 14.27 0 0 0 5.151-8.108 14 14 0 0 0-1.214-9.466M48.88 58.805a4.4 4.4 0 0 1-.517.737 6.1 6.1 0 0 1-2.279 1.39 6.19 6.19 0 0 1-5.207-.58 6 6 0 0 1-1.898-1.857 2.2 2.2 0 0 1-.358-.582 13 13 0 0 0-3.42-3.608 15.3 15.3 0 0 0-2.305-1.32 13.1 13.1 0 0 0-5.05-1.124h-.795a13.2 13.2 0 0 0-4.89 1.125c-.818.354-1.591.796-2.307 1.319a12.6 12.6 0 0 0-3.539 3.88l-.238.426a6 6 0 0 1-2.287 2.072 6.17 6.17 0 0 1-3.041.683 5.6 5.6 0 0 1-2.62-.714 5.5 5.5 0 0 1-1.953-1.847 5.62 5.62 0 0 1-.358-5.315c8.35-17.962 16.422-21.57 21.75-21.57 7.554 0 14.79 7.138 21.47 21.182a6.53 6.53 0 0 1-.158 5.703"/>
</svg>
